src/content/images/socialicons/stack-overflow.svg

<svg viewBox="0 0 384 512" xmlns="http://www.w3.org/2000/svg"><path d="m293.7 300-181.2-84.5 16.7-36.5 181.3 84.7zm48-76-153.5-128.3-25.5 30.8 153.5 128.3zm39.6-31.7-119.3-160.3-32 24 119.3 160.3zm-90.6 118.7-195.7-41.3-8.2 39.3 195.7 41zm31.6 129h-279.6v-120h-40v160h359.5v-160h-40v120m-39.8-80h-200v39.7h200z" fill="#4e9fbe"/></svg>

<?xml version="1.0" standalone="yes"?><svg xmlns="http://www.w3.org/2000/svg" viewBox="0 0 384 512" style="zoom: 1;"><path d="M293.7,300 l-181.2,-84.5 l16.7,-36.5 l181.3,84.7 l-16.8,36.3 m48,-76 L188.2,95.7 l-25.5,30.8 l153.5,128.3 l25.5,-30.8 m39.6,-31.7 L262,32 l-32,24 l119.3,160.3 l32,-24 M290.7,311 L95,269.7 L86.8,309 l195.7,41 l8.2,-39 m31.6,129 H42.7 V320 h-40 v160 h359.5 V320 h-40 v120 m-39.8,-80 h-200 v39.7 h200 V360  z " fill="#4E9FBE"></path></svg>
